packages/katcn/src/icons/svg/wind.svg

<svg width="24" height="25" viewBox="0 0 24 25" fill="none" xmlns="http://www.w3.org/2000/svg">
<path d="M6.69999 7.36797C5.19999 7.36797 3.69999 6.96797 2.39999 5.86797C1.99999 5.46797 1.89999 4.86797 2.29999 4.46797C2.69999 4.06797 3.29999 3.96797 3.69999 4.36797C5.99999 6.26797 8.59999 5.36797 11.6 4.26797C14.7 3.16797 18.3 1.96797 21.6 4.26797C22.1 4.56797 22.2 5.16797 21.8 5.66797C21.5 6.16797 20.9 6.26797 20.4 5.86797C17.9 4.16797 15.1 5.06797 12.2 6.06797C10.4 6.76797 8.49999 7.36797 6.69999 7.36797Z" fill="black"/>
<path d="M6.69999 15.168C5.19999 15.168 3.79999 14.768 2.39999 13.668C1.99999 13.268 1.89999 12.668 2.29999 12.268C2.69999 11.868 3.29999 11.768 3.69999 12.168C5.99999 14.068 8.59999 13.168 11.6 12.068C14.7 10.968 18.3 9.76796 21.6 12.068C22.1 12.368 22.2 12.968 21.8 13.468C21.5 13.968 20.9 14.068 20.4 13.668C18 11.968 15.2 12.968 12.2 13.968C10.4 14.568 8.49999 15.168 6.69999 15.168Z" fill="black"/>
<path d="M6.69999 22.9679C5.19999 22.9679 3.79999 22.5679 2.39999 21.4679C1.99999 21.0679 1.89999 20.4679 2.29999 20.0679C2.69999 19.6679 3.29999 19.5679 3.69999 19.9679C5.99999 21.8679 8.59999 20.9679 11.6 19.8679C14.7 18.7679 18.3 17.5679 21.6 19.8679C22.1 20.1679 22.2 20.7679 21.8 21.2679C21.5 21.7679 20.9 21.8679 20.4 21.4679C17.9 19.7679 15.1 20.6679 12.2 21.6679C10.4 22.2679 8.49999 22.9679 6.69999 22.9679Z" fill="black"/>
</svg>

<svg xmlns="http://www.w3.org/2000/svg" fill="none" viewBox="0 0 24 25"><path fill="#000" d="M6.7 7.368c-1.5 0-3-.4-4.3-1.5-.4-.4-.5-1-.1-1.4s1-.5 1.4-.1c2.3 1.9 4.9 1 7.9-.1 3.1-1.1 6.7-2.3 10 0 .5.3.6.9.2 1.4-.3.5-.9.6-1.4.2-2.5-1.7-5.3-.8-8.2.2-1.8.7-3.7 1.3-5.5 1.3m0 7.8c-1.5 0-2.9-.4-4.3-1.5-.4-.4-.5-1-.1-1.4s1-.5 1.4-.1c2.3 1.9 4.9 1 7.9-.1 3.1-1.1 6.7-2.3 10 0 .5.3.6.9.2 1.4-.3.5-.9.6-1.4.2-2.4-1.7-5.2-.7-8.2.3-1.8.6-3.7 1.2-5.5 1.2m0 7.8c-1.5 0-2.9-.4-4.3-1.5-.4-.4-.5-1-.1-1.4s1-.5 1.4-.1c2.3 1.9 4.9 1 7.9-.1 3.1-1.1 6.7-2.3 10 0 .5.3.6.9.2 1.4-.3.5-.9.6-1.4.2-2.5-1.7-5.3-.8-8.2.2-1.8.6-3.7 1.3-5.5 1.3"/></svg>
